X:1
T:Liederkreis, Op.39
T:Auf einer Burg
T:7. Auf einer Burg
T:Robert Schumann
T:Liederkreis, Op.39
T:Joseph von Eichendorff
T:OpenScore (CC0)
T:OpenScore (CC0)
C:Robert Schumann
Z:Joseph von Eichendorff
Z:OpenScore (CC0)
%%score 1 { ( 2 3 5 ) | ( 4 6 ) }
L:1/8
Q:1/4=70
M:4/4
K:C
V:1 treble nm="Voice"
V:2 treble nm="Piano"
V:3 treble 
V:5 treble 
V:4 bass 
V:6 bass 
V:1
"^Adagio"!p! B3 E E3 E | E3 ^F G3 G | G2 G2 c3 c | B3 B G3 G | B3 E E3 E | E3 ^F G3 G | %6
w: Ein- ge- schla- fen|auf der Lau- er|o- ben ist der|al- te Rit- ter,|drü- ber ge- hen|Re- gen- schau- er|
[Q:1/4=66]"^T" E3 E A2 A2 | G3 G E2 !breath!E2 |[Q:1/4=63]"^T" G3 C C2 C2 | C2 C2 A2 A2 | %10
w: und der Wald rauscht|durch das Git- ter.|Ein- ge- wach- sen|Bart und Haa- re|
 A3 D D2 D2 | D2 D2 B2 B2 | B3 E E2 E2 | E2 E2 c2 c2 | B2 B2 A2 A2 | ^G6 A2 | (A6 ^G2) | ^G4 z4 | %18
w: und ver- stei- nert|Brust und Krau- se,|sitzt er vie- le|hun- dert Jah- re|o- ben in der|stil- len|Klau- *|se.|
 z8 | z8 | z8 |!p![Q:1/4=70]"^T" B3 E E3 E | E3 ^F G3 G | G2 G2 c3 c | B3 B G3 G | B3 E E3 E | %26
w: |||Drau- ssen  ist es|still und   fried- lich,|al- le sind in's|Tal ge- zo- gen,|Wal- des- vö- gel|
 E3 ^F G3 G | E3 E A2 A2 | G3 G E2 E2 | z C2 C C2 C2 | C2 C2 A2 A2 | A3 D D2 D2 | D2 D2 B2 B2 | %33
w: ein- sam sin- gen|in den lee- ren|Fen- ster- bo- gen.|Ei- ne Hoch- zeit|fährt da un- ten|auf dem Rhein im|Son- nen- schei- ne,|
 B3 E E2 E2 | E2 E2 c2 c2 | B2 B2[Q:1/4=66]"^T""^ritard." A2[Q:1/4=64]"^T" A2 | %36
w: Mu- si- kan- ten|spie- len mun- ter,|und die schö- ne|
[Q:1/4=62]"^T" ^G6 A2[Q:1/4=60]"^T" |[Q:1/4=58]"^T" (A4[Q:1/4=56]"^T" ^G2 ^F2) | !fermata!^G4 z4 |] %39
w: Braut, die|wei- * *|net.|
V:2
!p! B8- | B4 G4- | G4 c4 | B4 G4 | z8 | z4 (B4 | E4 A4 | G4 E4-) | E4 C4- | C4!<(! C4-!<)! | C8- | %11
 C4 C4- | C8 | (C4 [EF-c]4 | [DFB]4 [C^DA]4 | ^G6) (A2 | A6 ^G2 | [Ee-]8) | e4 c4- | c4 (f4 | %20
 e4 c4) |!p! B8- | B4 G4- | G4 c4 | B4 G4 | z8 | z4 (B4 | E4 A4 | G4) E4- | E4 C4- | C4 C4- | C8- | %32
 C4 C4- | C8 | C4 ([EF-c]4 | [DFB]4 [C^DA]4 | ^G6) A2 | (A4 ^G2 ^F2 | !fermata![B,E^G]8) |] %39
V:3
 (B4 E4- | E8- | E4 E4 | ^D4 E4) | x8 | x4 B4 | E4 C4 | B,4 C4- | C4 G,4 | A,4 F,4 | G,4 A,4 | %11
 B,4 G,4 | A,4 B,4 | C4 x4 | x8 | [B,=D]4 [CE]4 | [B,E]8 | [^Ge]4 A4- | A8- | A4 A4 | ^G4 A4 | %21
 B4 E4- | E8- | E4 E4 | ^D4 E4 | x8 | x4 B4 | E4 C4 | B,4 C4- | C4 G,4 | A,4 F,4 | G,4 A,4 | %32
 B,4 G,4 | A,4 B,4 | C4 x4 | x8 | [B,=D]4 [CE]4 | [B,E]8- | x8 |] %39
V:4
 z8 | (B,4 E,4) | (E,3 ^F, G,4) | ^F,4 E,4- | E,8- | (E,3 ^F, G,4-) | G,4 =F,4 | D,4 C,4- | %8
!<(! C,8-!<)! | C,4 C,4- | C,8- | C,4 C,4- | C,8- | C,4 !>![D,,D,]4- | [D,,D,]4 ([F,,F,]4- | %15
 [F,,F,]4 [E,,E,]4- | [E,,E,]4 [A,,,A,,]4- | [A,,,A,,]3 [B,,,B,,] [C,,C,]4) | (E4 A,4-) | %19
 A,3 B, C4 | B,4 A,4 | z8 | (B,4 E,4) | (E,3 ^F, G,4) | ^F,4 E,4- | E,8- | (E,3 ^F, G,4-) | %27
 G,4 =F,4 | D,4 C,4- | C,8- | C,4 C,4- | C,8- | C,4 C,4- | C,8- | C,4 !>![D,,D,]4- | %35
 [D,,D,]4"^ritard." [F,,F,]4- | [F,,F,]4 [E,,E,]4- | [E,,E,]4 [E,,,E,,]4- | !fermata![E,,,E,,]8 |] %39
V:5
 x8 | E3 ^F G4 | x8 | x8 | x8 | x8 | x8 | x8 | x8 | x8 | x8 | x8 | x8 | x8 | x8 | x8 | x8 | x8 | %18
 A3 B c4 | x8 | x8 | x8 | E3 ^F G4 | x8 | x8 | x8 | x8 | x8 | x8 | x8 | x8 | x8 | x8 | x8 | x8 | %35
 x8 | x8 | x8 | x8 |] %39
V:6
 x8 | z8 | (E,4 A,,4) | (B,,4 E,,4- | E,,3 ^F,, G,,4) | (A,,4 B,,4 | C,4 =F,,4) | (G,,4 C,,4- | %8
 C,,3 D,, E,,4 | F,,4) (D,,4 | E,,4 F,,4 | G,,4) (E,,4 | F,,4 G,,4 | A,,4) x4 | x8 | x8 | x8 | x8 | %18
 z8 | (F,4 D,4 | E,4 A,,4) | x8 | z8 | (E,4 A,,4) | (B,,4 E,,4- | (E,,3) ^F,, G,,4) | (A,,4 B,,4 | %27
 C,4 =F,,4) | (G,,4 C,,4-) | (C,,3 D,, E,,4 | F,,4) (D,,4 | E,,4 F,,4 | G,,4) (E,,4 | F,,4 G,,4 | %34
 A,,4) x4 | x8 | x8 | x8 | x8 |] %39

